X:45
T:No Damn Bucket of Grins
R:reel
C: 1980, 2010 L.E. McCullough  
M:4/4
L:1/8
K:G
|:~a3g edeg|edBA ~G3A|~B3d e~g3|edBG ~A3g|
~a3b aged|edBA ~G3A|B~G3 E~G3|1 D~G3 ~A3g:|2 D~G3 ~A3G|] 
|:DEGA B~A3| D~G3 A~G3|edBA G~E3|D~G3 ~A3B|
DEGA B~A3|e~g3 a~g3|~a3g edeg|1 edBG ~A3G:|2  edBG ~A3f|]
<end>
<start>
